X:261
T: WIE LIEBLICH ISTS HIENIEDEN
N: B0740
O: Europa, Mitteleuropa, Deutschland, Westerwald
R: Moral - Lied, religioes
M: 6/8
L: 1/8
K: G
D | B2AG2E | D2GG2
G | A2AA2A | B3z2
D | B2Bd2d | c2EE2
E | D2GB2A | G3z2

@@@ Tune index: 2479
